Newaita-dark/.places-darknight/64/folder-network.svg

<?xml version="1.0" encoding="UTF-8"?>
<svg xmlns="http://www.w3.org/2000/svg" xmlns:xlink="http://www.w3.org/1999/xlink" width="64px" height="64px" viewBox="0 0 64 64" version="1.1">
<defs>
<radialGradient id="radial0" gradientUnits="userSpaceOnUse" cx="450.908936" cy="189.579361" fx="450.908936" fy="189.579361" r="21.166656" gradientTransform="matrix(0.000000348341,-0.156265,-0.281277,-0.000000203077,90.038582,127.190659)">
<stop offset="0" style="stop-color:rgb(0%,0%,0%);stop-opacity:0.313726;"/>
<stop offset="0.222222" style="stop-color:rgb(0%,0%,0%);stop-opacity:0.27451;"/>
<stop offset="1" style="stop-color:rgb(0%,0%,0%);stop-opacity:0;"/>
</radialGradient>
<radialGradient id="radial1" gradientUnits="userSpaceOnUse" cx="450.908936" cy="189.579361" fx="450.908936" fy="189.579361" r="21.166656" gradientTransform="matrix(-0.000000348341,0.156265,0.281277,0.000000203077,-26.53252,-15.054964)">
<stop offset="0" style="stop-color:rgb(0%,0%,0%);stop-opacity:0.313726;"/>
<stop offset="0.222222" style="stop-color:rgb(0%,0%,0%);stop-opacity:0.27451;"/>
<stop offset="1" style="stop-color:rgb(0%,0%,0%);stop-opacity:0;"/>
</radialGradient>
<radialGradient id="radial2" gradientUnits="userSpaceOnUse" cx="450.908936" cy="189.579361" fx="450.908936" fy="189.579361" r="21.166656" gradientTransform="matrix(-0.000000348341,-0.156265,0.281277,-0.000000203077,-26.53252,127.190659)">
<stop offset="0" style="stop-color:rgb(0%,0%,0%);stop-opacity:0.313726;"/>
<stop offset="0.222222" style="stop-color:rgb(0%,0%,0%);stop-opacity:0.27451;"/>
<stop offset="1" style="stop-color:rgb(0%,0%,0%);stop-opacity:0;"/>
</radialGradient>
<radialGradient id="radial3" gradientUnits="userSpaceOnUse" cx="450.908936" cy="189.579361" fx="450.908936" fy="189.579361" r="21.166656" gradientTransform="matrix(0.000000348341,0.156265,-0.281277,0.000000203077,90.038578,-15.054965)">
<stop offset="0" style="stop-color:rgb(0%,0%,0%);stop-opacity:0.313726;"/>
<stop offset="0.222222" style="stop-color:rgb(0%,0%,0%);stop-opacity:0.27451;"/>
<stop offset="1" style="stop-color:rgb(0%,0%,0%);stop-opacity:0;"/>
</radialGradient>
<linearGradient id="linear0" gradientUnits="userSpaceOnUse" x1="255.323059" y1="233.5" x2="255.323044" y2="254.666656" gradientTransform="matrix(0.0267201,0,0,0.125012,23.93849,26.877567)">
<stop offset="0" style="stop-color:rgb(0%,0%,0%);stop-opacity:0.27451;"/>
<stop offset="1" style="stop-color:rgb(0%,0%,0%);stop-opacity:0;"/>
</linearGradient>
<linearGradient id="linear1" gradientUnits="userSpaceOnUse" x1="254" y1="-168.666672" x2="254" y2="233.5" >
<stop offset="0" style="stop-color:rgb(70.19608%,89.803922%,98.823529%);stop-opacity:1;"/>
<stop offset="1" style="stop-color:rgb(30.980393%,76.47059%,96.862745%);stop-opacity:1;"/>
</linearGradient>
<linearGradient id="linear2" gradientUnits="userSpaceOnUse" x1="296.333344" y1="233.5" x2="296.333344" y2="-168.666656" gradientTransform="matrix(0.125012,0,0,0.125012,0.080366,26.961515)">
<stop offset="0" style="stop-color:rgb(29.803923%,68.627453%,31.37255%);stop-opacity:1;"/>
<stop offset="1" style="stop-color:rgb(40.000001%,73.333335%,41.568628%);stop-opacity:1;"/>
</linearGradient>
<linearGradient id="linear3" gradientUnits="userSpaceOnUse" x1="254" y1="233.5" x2="254" y2="138.25" >
<stop offset="0" style="stop-color:rgb(0%,0%,0%);stop-opacity:0.0784314;"/>
<stop offset="1" style="stop-color:rgb(100%,100%,100%);stop-opacity:0;"/>
</linearGradient>
<linearGradient id="linear4" gradientUnits="userSpaceOnUse" x1="254" y1="233.5" x2="254" y2="138.25" >
<stop offset="0" style="stop-color:rgb(0%,0%,0%);stop-opacity:0.0784314;"/>
<stop offset="1" style="stop-color:rgb(100%,100%,100%);stop-opacity:0;"/>
</linearGradient>
<linearGradient id="linear5" gradientUnits="userSpaceOnUse" x1="254" y1="233.5" x2="254" y2="138.25" >
<stop offset="0" style="stop-color:rgb(0%,0%,0%);stop-opacity:0.0784314;"/>
<stop offset="1" style="stop-color:rgb(100%,100%,100%);stop-opacity:0;"/>
</linearGradient>
</defs>
<g id="surface1">
<path style=" stroke:none;fill-rule:nonzero;fill:url(#radial0);" d="M 37.375 56.066406 L 42.667969 56.066406 L 42.667969 53.421875 L 37.375 53.421875 Z M 37.375 56.066406 "/>
<path style=" stroke:none;fill-rule:nonzero;fill:url(#radial1);" d="M 26.128906 56.066406 L 20.839844 56.066406 L 20.839844 58.714844 L 26.128906 58.714844 Z M 26.128906 56.066406 "/>
<path style=" stroke:none;fill-rule:nonzero;fill:url(#radial2);" d="M 26.128906 56.066406 L 20.839844 56.066406 L 20.839844 53.421875 L 26.128906 53.421875 Z M 26.128906 56.066406 "/>
<path style=" stroke:none;fill-rule:nonzero;fill:url(#radial3);" d="M 37.375 56.066406 L 42.667969 56.066406 L 42.667969 58.714844 L 37.375 58.714844 Z M 37.375 56.066406 "/>
<path style=" stroke:none;fill-rule:nonzero;fill:url(#linear0);" d="M 26.128906 55.40625 L 37.375 55.40625 L 37.375 58.53125 L 26.128906 58.53125 Z M 26.128906 55.40625 "/>
<path style="fill-rule:nonzero;fill:url(#linear1);stroke-width:3;stroke-linecap:round;stroke-linejoin:miter;stroke:rgb(20%,20%,20%);stroke-opacity:1;stroke-miterlimit:4;" d="M 254.006994 -168.660675 C 365.058889 -168.660675 455.081542 -78.638022 455.081542 32.413873 C 455.081542 143.465768 365.058889 233.488421 254.006994 233.488421 C 142.955098 233.488421 52.901198 143.465768 52.901198 32.413873 C 52.901198 -78.638022 142.955098 -168.660675 254.006994 -168.660675 Z M 254.006994 -168.660675 " transform="matrix(0.125012,0,0,0.125012,0,26.877566)"/>
<path style=" stroke:none;fill-rule:nonzero;fill:url(#linear2);" d="M 31.777344 7.199219 C 29.46875 7.429688 27.039062 7.738281 24.964844 8.785156 C 24.785156 9.894531 28.738281 11.355469 25.550781 12.34375 C 25.941406 14.101562 27.9375 15.695312 28.691406 13.070312 C 30.019531 11.835938 32.925781 12.277344 33.488281 10.113281 C 34.699219 7.902344 33.703125 7.980469 31.777344 7.199219 Z M 24.90625 7.417969 C 23.683594 7.777344 20.773438 8.480469 20.875 9.398438 C 21.90625 9.214844 25.679688 8.75 24.90625 7.417969 Z M 20.625 10.007812 C 19.804688 10.304688 19.707031 11.636719 19.234375 10.175781 C 19.570312 11.503906 17.324219 12.722656 18.390625 13.523438 C 19.242188 12.371094 20.882812 10.523438 22.417969 12.433594 C 23.75 13.757812 24.941406 11.933594 23.078125 11.410156 C 22.859375 10.207031 20.980469 11.082031 20.625 10.007812 Z M 19.234375 10.175781 C 19.222656 10.132812 19.210938 10.089844 19.195312 10.046875 C 19.207031 10.09375 19.222656 10.136719 19.234375 10.175781 Z M 43.988281 10.921875 C 41.589844 11 40.71875 12.949219 39.21875 14.246094 C 39 16.570312 40.953125 14.304688 41.863281 16.070312 C 42.902344 15.097656 41.921875 12.660156 43.945312 12.230469 C 43.882812 13.152344 42.878906 15.046875 44.730469 14.578125 C 43.675781 15.417969 41.796875 18.4375 40.695312 16.183594 C 39.875 15.613281 40.523438 17.96875 39.160156 17.464844 C 38.738281 19.003906 35.578125 18.769531 37.5625 20.304688 C 36.027344 20.402344 34.160156 22.574219 36.253906 23.664062 C 38.257812 23.972656 38.324219 20.570312 40.578125 20.8125 C 41.578125 21.472656 42.261719 22.191406 42.15625 23.007812 C 44.214844 22.683594 41.023438 19.78125 43.164062 21.289062 C 43.386719 22.308594 44.675781 24.695312 44.664062 22.203125 C 46.074219 22.359375 46.550781 24.496094 48.292969 24.019531 C 49.003906 26.074219 45.5 25.722656 44.289062 25.070312 C 42.414062 26.984375 41.6875 22.972656 39.292969 23.8125 C 36.546875 23.804688 34.589844 25.941406 32.925781 27.878906 C 32.199219 29.515625 31.765625 31.21875 31.96875 32.914062 C 32.589844 34.5625 34.953125 37.003906 36.296875 36.582031 C 37.964844 35.875 39.773438 36.195312 41.761719 36.59375 C 42.605469 37.609375 41.300781 38.929688 42.679688 39.835938 C 42.652344 41.699219 43.570312 43.152344 42.507812 44.886719 C 42.460938 47.488281 44.609375 49.582031 44.363281 52.222656 C 46.207031 51.445312 48.113281 50.230469 48.472656 48.246094 C 49.769531 47.445312 47.414062 46.054688 49.757812 45.402344 C 52.09375 43.953125 49.179688 40.414062 51.4375 38.542969 C 52.4375 37.332031 54.3125 34.515625 53.398438 33.589844 C 50.59375 33.535156 55.710938 31.507812 55.703125 30.148438 C 56.058594 29.320312 54.957031 27.574219 54.398438 29.046875 C 53.238281 28.976562 52.027344 25.457031 53.667969 27.222656 C 54.542969 26.914062 56.03125 28.566406 56.574219 28.304688 C 55.898438 22.164062 52.902344 16.289062 48.234375 12.226562 C 47.886719 13.9375 45.859375 13.742188 46.097656 12.167969 C 48.585938 12.214844 46.445312 11.359375 45.289062 11.359375 C 44.847656 11.238281 44.417969 11.074219 43.988281 10.921875 Z M 16.636719 10.960938 C 16.628906 10.96875 16.617188 10.976562 16.605469 10.984375 C 16.105469 11.726562 16.445312 12.65625 15.089844 12.40625 C 14.75 12.636719 14.425781 12.886719 14.113281 13.152344 C 9.527344 17.699219 6.695312 24.015625 6.695312 31.015625 C 6.695312 31.054688 6.695312 31.097656 6.695312 31.140625 C 8.03125 33.152344 11.070312 32.628906 12.289062 34.753906 C 13.792969 35.417969 15.445312 35.679688 13.9375 37.671875 C 12.929688 39.449219 12.628906 41.519531 14.203125 43.113281 C 15.066406 44.902344 17.414062 46.191406 16.636719 48.457031 C 17.257812 49.664062 17.707031 50.453125 17.726562 51.777344 C 17.929688 51.933594 18.152344 52.105469 18.382812 52.277344 C 18.9375 52.625 19.503906 52.953125 20.082031 53.261719 C 20.898438 53.535156 21.65625 53.398438 22.101562 52.253906 C 24.828125 51.804688 22.71875 47.96875 25.046875 47.375 C 27.625 46.527344 25.015625 43.207031 27.660156 42.308594 C 29.382812 39.90625 25.539062 39.378906 24.042969 38.539062 C 22.652344 37.640625 22.121094 36.226562 20.488281 35.90625 C 20.449219 33.445312 17.339844 35.59375 16.789062 33.253906 C 15.5625 32.242188 14.527344 36.394531 12.96875 34.171875 C 12.429688 33.472656 13.023438 31.464844 11.449219 32.171875 C 12.238281 30.648438 11.199219 29.027344 10.144531 30.914062 C 7.660156 31.207031 8.488281 26.96875 10.609375 26.890625 C 11.789062 26.121094 13.273438 26.429688 14.078125 27.648438 C 13.304688 25.167969 16.738281 24.898438 16.605469 22.628906 C 17.78125 21.246094 20.925781 21.941406 21.394531 19.792969 C 20.609375 19.621094 18.027344 20.089844 19.980469 18.929688 C 21.402344 18.324219 25.296875 18.117188 22.441406 16.183594 C 23.007812 14.121094 20.609375 15.980469 20.882812 14.269531 C 18.816406 12.671875 19.285156 16.589844 17.734375 16.757812 C 16.886719 19.171875 16.984375 15.851562 15.320312 16.167969 C 12.953125 14.0625 20.101562 13.566406 17.777344 11.113281 C 17.425781 10.886719 17.023438 10.992188 16.636719 10.960938 Z M 35.554688 11.742188 C 34.519531 11.785156 32.316406 12.679688 34.480469 13.070312 C 35.097656 12.847656 36.796875 12.542969 35.554688 11.742188 Z M 21.613281 12.566406 C 19.550781 13.804688 24.421875 14.089844 21.875 12.617188 Z M 36.90625 15.085938 C 37.761719 16.074219 36.296875 19.3125 38.359375 18.074219 C 39.371094 17.289062 37.574219 15.375 36.90625 15.085938 Z M 36.523438 16.402344 C 34.210938 17.304688 37.941406 18.703125 36.523438 16.402344 Z M 23.164062 18.375 C 22.789062 19.753906 24.441406 19.996094 23.652344 18.730469 L 23.382812 18.554688 Z M 48.441406 26.917969 C 49.949219 28.160156 50.238281 30.296875 51.457031 31.675781 C 51.339844 32.820312 52.316406 34.566406 50.550781 33.128906 C 50.628906 30.820312 47.789062 29.113281 48.160156 27.019531 Z M 48.441406 26.917969 "/>
<path style=" stroke:none;fill-rule:nonzero;fill:rgb(100%,100%,100%);fill-opacity:0.588235;" d="M 31.753906 5.792969 C 17.828125 5.792969 6.613281 17.003906 6.613281 30.929688 C 6.613281 31.011719 6.617188 31.09375 6.617188 31.175781 C 6.746094 17.363281 17.910156 6.285156 31.753906 6.285156 C 45.597656 6.285156 56.757812 17.363281 56.890625 31.175781 C 56.890625 31.09375 56.890625 31.011719 56.890625 30.929688 C 56.890625 17.003906 45.679688 5.792969 31.753906 5.792969 Z M 31.753906 5.792969 "/>
<path style=" stroke:none;fill-rule:nonzero;fill:rgb(12.941177%,12.941177%,12.941177%);fill-opacity:1;" d="M 31.753906 5.605469 C 17.726562 5.605469 6.425781 16.902344 6.425781 30.929688 C 6.425781 44.957031 17.726562 56.253906 31.753906 56.253906 C 45.78125 56.253906 57.078125 44.957031 57.078125 30.929688 C 57.078125 16.902344 45.78125 5.605469 31.753906 5.605469 Z M 31.753906 5.980469 C 45.578125 5.980469 56.703125 17.105469 56.703125 30.929688 C 56.703125 44.753906 45.578125 55.878906 31.753906 55.878906 C 17.925781 55.878906 6.800781 44.753906 6.800781 30.929688 C 6.800781 17.105469 17.925781 5.980469 31.753906 5.980469 Z M 31.753906 5.980469 "/>
<path style="fill-rule:nonzero;fill:rgb(45.882353%,45.882353%,45.882353%);fill-opacity:1;stroke-width:3;stroke-linecap:square;stroke-linejoin:bevel;stroke:rgb(12.941177%,12.941177%,12.941177%);stroke-opacity:1;stroke-miterlimit:4;" d="M 74.086675 159.401746 L 433.927312 159.401746 C 439.770504 159.401746 444.488803 164.151293 444.488803 169.994485 L 444.488803 201.741453 C 444.488803 207.584645 439.770504 212.334192 433.927312 212.334192 L 74.086675 212.334192 C 68.243483 212.334192 63.493937 207.584645 63.493937 201.741453 L 63.493937 169.994485 C 63.493937 164.151293 68.243483 159.401746 74.086675 159.401746 Z M 74.086675 159.401746 " transform="matrix(0.125012,0,0,0.125012,0,26.877566)"/>
<path style="fill-rule:nonzero;fill:url(#linear3);stroke-width:3;stroke-linecap:square;stroke-linejoin:bevel;stroke:rgb(12.941177%,12.941177%,12.941177%);stroke-opacity:1;stroke-miterlimit:4;" d="M 211.667287 138.247517 L 306.908192 138.247517 C 318.594576 138.247517 328.093669 147.715362 328.093669 159.401746 L 328.093669 212.334192 C 328.093669 224.020576 318.594576 233.488421 306.908192 233.488421 L 211.667287 233.488421 C 199.980903 233.488421 190.513057 224.020576 190.513057 212.334192 L 190.513057 159.401746 C 190.513057 147.715362 199.980903 138.247517 211.667287 138.247517 Z M 211.667287 138.247517 " transform="matrix(0.125012,0,0,0.125012,0,26.877566)"/>
<path style="fill-rule:nonzero;fill:url(#linear4);stroke-width:3;stroke-linecap:square;stroke-linejoin:bevel;stroke:rgb(12.941177%,12.941177%,12.941177%);stroke-opacity:1;stroke-miterlimit:4;" d="M 74.086675 159.401746 L 433.927312 159.401746 C 439.770504 159.401746 444.488803 164.151293 444.488803 169.994485 L 444.488803 201.741453 C 444.488803 207.584645 439.770504 212.334192 433.927312 212.334192 L 74.086675 212.334192 C 68.243483 212.334192 63.493937 207.584645 63.493937 201.741453 L 63.493937 169.994485 C 63.493937 164.151293 68.243483 159.401746 74.086675 159.401746 Z M 74.086675 159.401746 " transform="matrix(0.125012,0,0,0.125012,0,26.877566)"/>
<path style="fill-rule:nonzero;fill:rgb(45.882353%,45.882353%,45.882353%);fill-opacity:1;stroke-width:3;stroke-linecap:square;stroke-linejoin:bevel;stroke:rgb(12.941177%,12.941177%,12.941177%);stroke-opacity:1;stroke-miterlimit:4;" d="M 211.667287 138.247517 L 306.908192 138.247517 C 318.594576 138.247517 328.093669 147.715362 328.093669 159.401746 L 328.093669 212.334192 C 328.093669 224.020576 318.594576 233.488421 306.908192 233.488421 L 211.667287 233.488421 C 199.980903 233.488421 190.513057 224.020576 190.513057 212.334192 L 190.513057 159.401746 C 190.513057 147.715362 199.980903 138.247517 211.667287 138.247517 Z M 211.667287 138.247517 " transform="matrix(0.125012,0,0,0.125012,0,26.877566)"/>
<path style="fill-rule:nonzero;fill:url(#linear5);stroke-width:3;stroke-linecap:square;stroke-linejoin:bevel;stroke:rgb(12.941177%,12.941177%,12.941177%);stroke-opacity:1;stroke-miterlimit:4;" d="M 211.667287 138.247517 L 306.908192 138.247517 C 318.594576 138.247517 328.093669 147.715362 328.093669 159.401746 L 328.093669 212.334192 C 328.093669 224.020576 318.594576 233.488421 306.908192 233.488421 L 211.667287 233.488421 C 199.980903 233.488421 190.513057 224.020576 190.513057 212.334192 L 190.513057 159.401746 C 190.513057 147.715362 199.980903 138.247517 211.667287 138.247517 Z M 211.667287 138.247517 " transform="matrix(0.125012,0,0,0.125012,0,26.877566)"/>
</g>
</svg>

<svg xmlns="http://www.w3.org/2000/svg" width="64pt" height="64pt" viewBox="0 0 64 64"><defs><radialGradient id="a" gradientUnits="userSpaceOnUse" cx="450.909" cy="189.579" fx="450.909" fy="189.579" r="21.167" gradientTransform="matrix(0 -.15626 -.28128 0 90.039 127.19)"><stop offset="0" stop-opacity=".314"/><stop offset=".222" stop-opacity=".275"/><stop offset="1" stop-opacity="0"/></radialGradient><radialGradient id="b" gradientUnits="userSpaceOnUse" cx="450.909" cy="189.579" fx="450.909" fy="189.579" r="21.167" gradientTransform="matrix(0 .15626 .28128 0 -26.533 -15.055)"><stop offset="0" stop-opacity=".314"/><stop offset=".222" stop-opacity=".275"/><stop offset="1" stop-opacity="0"/></radialGradient><radialGradient id="c" gradientUnits="userSpaceOnUse" cx="450.909" cy="189.579" fx="450.909" fy="189.579" r="21.167" gradientTransform="matrix(0 -.15626 .28128 0 -26.533 127.19)"><stop offset="0" stop-opacity=".314"/><stop offset=".222" stop-opacity=".275"/><stop offset="1" stop-opacity="0"/></radialGradient><radialGradient id="d" gradientUnits="userSpaceOnUse" cx="450.909" cy="189.579" fx="450.909" fy="189.579" r="21.167" gradientTransform="matrix(0 .15626 -.28128 0 90.039 -15.055)"><stop offset="0" stop-opacity=".314"/><stop offset=".222" stop-opacity=".275"/><stop offset="1" stop-opacity="0"/></radialGradient><linearGradient id="e" gradientUnits="userSpaceOnUse" x1="255.323" y1="233.5" x2="255.323" y2="254.667" gradientTransform="matrix(.02672 0 0 .12501 23.938 26.878)"><stop offset="0" stop-opacity=".275"/><stop offset="1" stop-opacity="0"/></linearGradient><linearGradient id="f" gradientUnits="userSpaceOnUse" x1="254" y1="233.5" x2="254" y2="-168.667" gradientTransform="translate(0 26.878) scale(.12501)"><stop offset="0" stop-color="#585858" stop-opacity="0"/><stop offset="1" stop-color="#fafafa" stop-opacity=".196"/></linearGradient><linearGradient id="g" gradientUnits="userSpaceOnUse" x1="254" y1="233.5" x2="254" y2="138.25"><stop offset="0" stop-color="#c5cae9"/><stop offset="1" stop-color="#e8eaf6"/></linearGradient><linearGradient id="h" gradientUnits="userSpaceOnUse" x1="254" y1="233.5" x2="254" y2="138.25"><stop offset="0" stop-color="#c5cae9"/><stop offset="1" stop-color="#e8eaf6"/></linearGradient></defs><path d="M37.375 56.066h5.293v-2.644h-5.293zm0 0" fill="url(#a)"/><path d="M26.129 56.066h-5.29v2.649h5.29zm0 0" fill="url(#b)"/><path d="M26.129 56.066h-5.29v-2.644h5.29zm0 0" fill="url(#c)"/><path d="M37.375 56.066h5.293v2.649h-5.293zm0 0" fill="url(#d)"/><path d="M26.129 55.406h11.246v3.125H26.129zm0 0" fill="url(#e)"/><path d="M31.754 5.793c13.883 0 25.137 11.254 25.137 25.137 0 13.883-11.254 25.136-25.137 25.136-13.883 0-25.14-11.254-25.14-25.136 0-13.883 11.257-25.137 25.14-25.137zm0 0" fill="#616161"/><path d="M31.762 7.113c-2.309.235-4.739.54-6.813 1.586-.18 1.114 3.774 2.57.586 3.563.39 1.754 2.387 3.347 3.14.722 1.333-1.234 4.235-.793 4.798-2.953 1.21-2.215.215-2.133-1.711-2.918zm-6.871.223c-1.223.355-4.133 1.059-4.028 1.977 1.028-.18 4.805-.645 4.028-1.977zm-4.282 2.59c-.82.293-.918 1.625-1.39.168.336 1.328-1.91 2.543-.844 3.347.855-1.152 2.496-3 4.027-1.09 1.336 1.325 2.528-.503.66-1.023-.218-1.203-2.097-.332-2.453-1.402zm-1.39.168c-.012-.043-.024-.086-.04-.13.012.044.028.087.04.13zm24.754.746c-2.399.074-3.27 2.027-4.766 3.324-.223 2.32 1.73.059 2.64 1.82 1.04-.968.06-3.41 2.083-3.836-.063.918-1.067 2.813.785 2.344-1.055.844-2.934 3.86-4.035 1.61-.82-.575-.172 1.785-1.535 1.277-.422 1.539-3.582 1.305-1.598 2.84-1.535.101-3.402 2.273-1.309 3.36 2.008.308 2.07-3.095 4.325-2.852 1 .66 1.683 1.382 1.578 2.195 2.058-.32-1.133-3.227 1.011-1.715.22 1.016 1.508 3.402 1.5.914 1.407.156 1.883 2.293 3.625 1.813.715 2.058-2.793 1.703-4.004 1.054-1.875 1.91-2.601-2.097-4.996-1.258-2.746-.011-4.703 2.13-6.363 4.063-.73 1.637-1.164 3.34-.96 5.04.62 1.647 2.984 4.085 4.327 3.667 1.668-.71 3.477-.387 5.465.008.844 1.015-.46 2.34.918 3.246-.027 1.86.89 3.312-.172 5.047-.047 2.601 2.102 4.699 1.86 7.336 1.84-.778 3.746-1.992 4.105-3.977 1.3-.8-1.055-2.187 1.285-2.84 2.336-1.449-.578-4.988 1.68-6.863 1.004-1.21 2.875-4.023 1.96-4.95-2.804-.058 2.313-2.081 2.306-3.44.355-.833-.747-2.575-1.305-1.102-1.16-.07-2.371-3.594-.73-1.828.874-.309 2.363 1.343 2.906 1.086-.676-6.145-3.672-12.016-8.34-16.078-.348 1.707-2.375 1.511-2.137-.063 2.488.047.348-.805-.809-.805-.44-.12-.87-.285-1.3-.437zm-27.364.035c-.527.746-.164 1.7-1.535 1.45-.582.39-1.113.84-1.61 1.327a24.786 24.786 0 0 0-1.804 2.133c-.683.945-1.305 1.95-1.902 2.934a25.078 25.078 0 0 0-3.145 12.21c0 .009.004.016.004.024 1.293 2.133 4.418 1.559 5.66 3.719 1.5.66 3.153.926 1.645 2.918-1.008 1.777-1.309 3.848.266 5.441.863 1.785 3.21 3.078 2.433 5.344.621 1.207 1.07 1.992 1.09 3.316.324.25.691.54 1.074.801.348.207.7.406 1.055.598.898.379 1.758.328 2.246-.922 2.727-.45.617-4.285 2.945-4.875 2.578-.848-.031-4.168 2.614-5.07 1.722-2.399-2.122-2.93-3.618-3.77-1.39-.894-1.922-2.312-3.554-2.629-.04-2.465-3.149-.312-3.7-2.652-1.226-1.016-2.261 3.14-3.82.918-.535-.703.055-2.711-1.52-2 .79-1.527-.25-3.145-1.304-1.262-2.484.293-1.656-3.941.465-4.023 1.18-.77 2.664-.457 3.469.761-.774-2.48 2.66-2.753 2.527-5.023 1.176-1.379 4.32-.684 4.789-2.836-.785-.172-3.367.3-1.414-.863 1.422-.602 5.316-.809 2.46-2.746.571-2.063-1.831-.203-1.558-1.91-2.062-1.598-1.594 2.32-3.148 2.488-.848 2.41-.75-.906-2.414-.59-2.367-2.11 4.781-2.606 2.457-5.059-.36-.226-.766-.117-1.153-.152zm18.93.781c-1.031.047-3.238.942-1.074 1.332.617-.222 2.316-.531 1.074-1.332zm-13.941.828c-2.063 1.239 2.808 1.524.261.051zm15.293 2.52c.855.984-.61 4.223 1.453 2.984 1.012-.781-.785-2.699-1.453-2.984zm-.383 1.312c-2.313.907 1.418 2.305 0 0zm-13.36 1.977c-.375 1.375 1.278 1.617.493.352l-.274-.176zm25.278 8.54c1.508 1.245 1.797 3.378 3.015 4.76-.117 1.141.86 2.887-.906 1.45.078-2.305-2.762-4.016-2.39-6.11zm0 0" fill="#424242" stroke-width=".37509412" stroke-linecap="round" stroke="#212121"/><path d="M31.754 5.793c13.883 0 25.137 11.254 25.137 25.137 0 13.883-11.254 25.136-25.137 25.136-13.883 0-25.14-11.254-25.14-25.136 0-13.883 11.257-25.137 25.14-25.137zm0 0" fill="url(#f)"/><path d="M31.754 5.793A25.085 25.085 0 0 0 6.614 30.93l.003.246c.13-13.813 11.293-24.89 25.137-24.89a25.082 25.082 0 0 1 25.137 24.89v-.246A25.082 25.082 0 0 0 31.754 5.793zm0 0" fill="#fff" fill-opacity=".588"/><path d="M31.754 5.605c-14.027 0-25.328 11.297-25.328 25.325 0 14.027 11.3 25.324 25.328 25.324A25.272 25.272 0 0 0 57.078 30.93 25.272 25.272 0 0 0 31.754 5.605zm0 .375a24.892 24.892 0 0 1 24.95 24.95 24.892 24.892 0 0 1-24.95 24.949A24.892 24.892 0 0 1 6.8 30.929 24.892 24.892 0 0 1 31.754 5.98zm0 0" fill="#212121"/><path d="M74.087 159.402h359.84c5.844 0 10.562 4.75 10.562 10.592v31.747c0 5.844-4.718 10.593-10.562 10.593H74.087c-5.844 0-10.593-4.75-10.593-10.593v-31.747c0-5.843 4.75-10.592 10.593-10.592zm0 0" transform="translate(0 26.878) scale(.12501)" fill="url(#g)" stroke-width="3" stroke-linecap="square" stroke-linejoin="bevel" stroke="#212121"/><path d="M211.667 138.248h95.241c11.687 0 21.186 9.467 21.186 21.154v52.932c0 11.687-9.5 21.154-21.186 21.154h-95.24c-11.687 0-21.155-9.467-21.155-21.154v-52.932c0-11.687 9.468-21.154 21.154-21.154zm0 0" transform="translate(0 26.878) scale(.12501)" fill="url(#h)" stroke-width="3" stroke-linecap="square" stroke-linejoin="bevel" stroke="#212121"/></svg>
